X:179
T:Rassemblee de Mezieres-sur-Couesnon
Z: Yves BELOTTEAU
M:2/4
L:1/16
Q:1/4=80
K:G
|D3/2 z/2 GB3/2 z/2 BBA|GA3/2 z/2 DFGA3/2 z/2 |BcBA B3/2 z/2 G|D3/2 z/2 
GB3/2 z/2 BBA|
GA3/2 z/2 DFGA3/2 z/2 |BcBA B3/2 z/2 G|G3/2 z/2 B/2B/2 BAGB/2B/2|BAG3/2 
z/2 B3/2 z/2 dd|
cBAA/2A/2 AGFA/2A/2|AGF3/2 z/2 A3/2 z/2 dc|BAG3/2 z/2 B/2B/2BAG|B/2B/2BA
G3/2 z/2 B3/2 z/2 d|
dcBA A/2A/2AGF|A/2A/2AGF3/2 z/2 A3/2 z/2 d|cBAG3/2|
